icons/warning.svg

<?xml version="1.0" standalone="no"?><!-- Generator: Gravit.io --><svg xmlns="http://www.w3.org/2000/svg" xmlns:xlink="http://www.w3.org/1999/xlink" width="96" height="96"><path d=" M 44 56.943749999999994 C 44 58.043749999999996 44.4 59.043749999999996 45.2 59.74374999999999 C 45.9 60.543749999999996 46.9 60.943749999999994 48 60.943749999999994 C 49.1 60.943749999999994 50.1 60.543749999999996 50.8 59.74374999999999 C 51.6 59.043749999999996 52 58.043749999999996 52 56.943749999999994 L 52 40.943749999999994 C 52 39.84375 51.6 38.84375 50.8 38.14375 C 50.1 37.34375 49.1 36.943749999999994 48 36.943749999999994 C 46.9 36.943749999999994 45.9 37.34375 45.2 38.14375 C 44.4 38.84375 44 39.84375 44 40.943749999999994 L 44 56.943749999999994 Z  M 44 72.94375 C 44 75.15141011801005 45.792339881989946 76.94375 48 76.94375 C 50.20766011801005 76.94375 52 75.15141011801005 52 72.94375 C 52 70.73608988198994 50.207660118010054 68.94375 48 68.94375 C 45.79233988198995 68.94375 44 70.73608988198994 44 72.94375 Z  M 53.5 8.943750000000001 L 95 81.94375 L 95.5 83.84375 C 95.6 84.24375 95.6 84.74375 95.6 85.24375 C 95.4 86.84375 94.6 88.34375 93.4 89.44375 C 92.1 90.54374999999999 90.5 91.04374999999999 88.8 90.94375 L 7.199999999999999 90.94375 C 5.5 91.04374999999999 3.9000000000000004 90.54374999999999 2.5999999999999996 89.44375 C 1.4000000000000004 88.34375 0.5999999999999996 86.84375 0.40000000000000036 85.24375 C 0.40000000000000036 84.74375 0.40000000000000036 84.24375 0.5 83.84375 L 1 81.94375 L 42.5 8.943750000000001 C 43.4 6.643750000000002 45.6 5.143750000000002 48 5.043750000000001 C 50.4 5.143750000000002 52.6 6.643750000000002 53.5 8.943750000000001 Z  M 9.5 82.94375 L 48 15.84375 L 86.5 82.94375 L 9.5 82.94375 Z " fill-rule="evenodd" fill="#454545" stroke="none"/><mask id="_mask_G7zIhVltdq3IQD9lnfyJcoRJ0hOOmPLg"><path d=" M 44 56.943749999999994 C 44 58.043749999999996 44.4 59.043749999999996 45.2 59.74374999999999 C 45.9 60.543749999999996 46.9 60.943749999999994 48 60.943749999999994 C 49.1 60.943749999999994 50.1 60.543749999999996 50.8 59.74374999999999 C 51.6 59.043749999999996 52 58.043749999999996 52 56.943749999999994 L 52 40.943749999999994 C 52 39.84375 51.6 38.84375 50.8 38.14375 C 50.1 37.34375 49.1 36.943749999999994 48 36.943749999999994 C 46.9 36.943749999999994 45.9 37.34375 45.2 38.14375 C 44.4 38.84375 44 39.84375 44 40.943749999999994 L 44 56.943749999999994 Z  M 44 72.94375 C 44 75.15141011801005 45.792339881989946 76.94375 48 76.94375 C 50.20766011801005 76.94375 52 75.15141011801005 52 72.94375 C 52 70.73608988198994 50.207660118010054 68.94375 48 68.94375 C 45.79233988198995 68.94375 44 70.73608988198994 44 72.94375 Z  M 53.5 8.943750000000001 L 95 81.94375 L 95.5 83.84375 C 95.6 84.24375 95.6 84.74375 95.6 85.24375 C 95.4 86.84375 94.6 88.34375 93.4 89.44375 C 92.1 90.54374999999999 90.5 91.04374999999999 88.8 90.94375 L 7.199999999999999 90.94375 C 5.5 91.04374999999999 3.9000000000000004 90.54374999999999 2.5999999999999996 89.44375 C 1.4000000000000004 88.34375 0.5999999999999996 86.84375 0.40000000000000036 85.24375 C 0.40000000000000036 84.74375 0.40000000000000036 84.24375 0.5 83.84375 L 1 81.94375 L 42.5 8.943750000000001 C 43.4 6.643750000000002 45.6 5.143750000000002 48 5.043750000000001 C 50.4 5.143750000000002 52.6 6.643750000000002 53.5 8.943750000000001 Z  M 9.5 82.94375 L 48 15.84375 L 86.5 82.94375 L 9.5 82.94375 Z " fill-rule="evenodd" fill="white" stroke="none"/></mask><path d=" M 44 56.943749999999994 C 44 58.043749999999996 44.4 59.043749999999996 45.2 59.74374999999999 C 45.9 60.543749999999996 46.9 60.943749999999994 48 60.943749999999994 C 49.1 60.943749999999994 50.1 60.543749999999996 50.8 59.74374999999999 C 51.6 59.043749999999996 52 58.043749999999996 52 56.943749999999994 L 52 40.943749999999994 C 52 39.84375 51.6 38.84375 50.8 38.14375 C 50.1 37.34375 49.1 36.943749999999994 48 36.943749999999994 C 46.9 36.943749999999994 45.9 37.34375 45.2 38.14375 C 44.4 38.84375 44 39.84375 44 40.943749999999994 L 44 56.943749999999994 Z  M 44 72.94375 C 44 75.15141011801005 45.792339881989946 76.94375 48 76.94375 C 50.20766011801005 76.94375 52 75.15141011801005 52 72.94375 C 52 70.73608988198994 50.207660118010054 68.94375 48 68.94375 C 45.79233988198995 68.94375 44 70.73608988198994 44 72.94375 Z  M 53.5 8.943750000000001 L 95 81.94375 L 95.5 83.84375 C 95.6 84.24375 95.6 84.74375 95.6 85.24375 C 95.4 86.84375 94.6 88.34375 93.4 89.44375 C 92.1 90.54374999999999 90.5 91.04374999999999 88.8 90.94375 L 7.199999999999999 90.94375 C 5.5 91.04374999999999 3.9000000000000004 90.54374999999999 2.5999999999999996 89.44375 C 1.4000000000000004 88.34375 0.5999999999999996 86.84375 0.40000000000000036 85.24375 C 0.40000000000000036 84.74375 0.40000000000000036 84.24375 0.5 83.84375 L 1 81.94375 L 42.5 8.943750000000001 C 43.4 6.643750000000002 45.6 5.143750000000002 48 5.043750000000001 C 50.4 5.143750000000002 52.6 6.643750000000002 53.5 8.943750000000001 Z  M 9.5 82.94375 L 48 15.84375 L 86.5 82.94375 L 9.5 82.94375 Z " fill-rule="evenodd" fill="none" stroke="none" stroke-width="16" mask="url(#_mask_G7zIhVltdq3IQD9lnfyJcoRJ0hOOmPLg)"/></svg>

<svg xmlns="http://www.w3.org/2000/svg" width="96" height="96"><path d="M44 56.944c0 1.1.4 2.1 1.2 2.8.7.8 1.7 1.2 2.8 1.2 1.1 0 2.1-.4 2.8-1.2.8-.7 1.2-1.7 1.2-2.8v-16c0-1.1-.4-2.1-1.2-2.8-.7-.8-1.7-1.2-2.8-1.2-1.1 0-2.1.4-2.8 1.2-.8.7-1.2 1.7-1.2 2.8v16zm0 16c0 2.207 1.792 4 4 4s4-1.793 4-4c0-2.208-1.792-4-4-4s-4 1.792-4 4zm9.5-64l41.5 73 .5 1.9c.1.4.1.9.1 1.4-.2 1.6-1 3.1-2.2 4.2-1.3 1.1-2.9 1.6-4.6 1.5H7.2c-1.7.1-3.3-.4-4.6-1.5-1.2-1.1-2-2.6-2.2-4.2 0-.5 0-1 .1-1.4l.5-1.9 41.5-73c.9-2.3 3.1-3.8 5.5-3.9 2.4.1 4.6 1.6 5.5 3.9zm-44 74l38.5-67.1 38.5 67.1h-77z" fill-rule="evenodd" fill="#454545"/></svg>
